packages/tokens/icons/demo/size16Px.svg

<svg viewBox="0 0 16 16" fill="none" xmlns="http://www.w3.org/2000/svg" width="1em" height="1em"><path d="M13.0714 7.49988V7.49988C13.8604 7.49988 14.5 8.13947 14.5 8.92845V12.9999C14.5 13.8283 13.8284 14.4999 13 14.4999H6C5.17157 14.4999 4.5 13.8283 4.5 12.9999V10.0788" stroke="currentColor" stroke-linecap="round"/><path d="M9.49999 10.4999H12.5M6.80768 10.4999H7.49999M9.49999 12.3461H12.5384M6.80768 12.3461H7.49999" stroke="currentColor" stroke-linecap="round"/><path d="M1.5 3C1.5 2.17157 2.17157 1.5 3 1.5L10 1.5C10.8284 1.5 11.5 2.17157 11.5 3V7C11.5 7.82843 10.8284 8.5 10 8.5H3C2.17157 8.5 1.5 7.82843 1.5 7L1.5 3Z" stroke="currentColor"/><path d="M8 5L5.5 3.5V6.5L8 5Z" stroke="currentColor" stroke-linecap="round" stroke-linejoin="round"/></svg>

<svg xmlns="http://www.w3.org/2000/svg" fill="none" viewBox="0 0 16 16" width="1em" height="1em"><path stroke="currentColor" stroke-linecap="round" d="M13.071 7.5v0c.79 0 1.429.64 1.429 1.428V13a1.5 1.5 0 0 1-1.5 1.5H6A1.5 1.5 0 0 1 4.5 13v-2.921m5 .421h3m-5.692 0H7.5m2 1.846h3.038m-5.73 0H7.5"/><path stroke="currentColor" d="M1.5 3A1.5 1.5 0 0 1 3 1.5h7A1.5 1.5 0 0 1 11.5 3v4A1.5 1.5 0 0 1 10 8.5H3A1.5 1.5 0 0 1 1.5 7V3Z"/><path stroke="currentColor" stroke-linecap="round" stroke-linejoin="round" d="M8 5 5.5 3.5v3L8 5Z"/></svg>
